svgs/Github-icons.svg

<svg height="59" viewBox="0 0 60 59" width="60" xmlns="http://www.w3.org/2000/svg"><g fill="#e96e14" fill-rule="evenodd"><path d="m30.0540496.22118749c-16.5357025 0-29.94446282 13.40763191-29.94446282 29.94809201 0 13.2320705 8.58 24.4580796 20.47785122 28.4181292 1.4965289.2772283 2.0459504-.6496762 2.0459504-1.4406943 0-.7141479-.0277686-3.0733159-.0406611-5.5758093-8.3305785 1.8116545-10.0884298-3.5335446-10.0884298-3.5335446-1.3621487-3.4616338-3.32479337-4.3820912-3.32479337-4.3820912-2.7168595-1.8587684.20479339-1.8205813.20479339-1.8205813 3.00694218.2107728 4.59024798 3.0862102 4.59024798 3.0862102 2.6707438 4.5784819 7.0051239 3.2548285 8.7138843 2.4895991.2687603-1.9351426 1.0447933-3.2573082 1.901157-4.0046838-6.6510744-.7572944-13.6428099-3.3252514-13.6428099-14.8007164 0-3.2697066 1.169752-5.9413142 3.0852892-8.0386279-.3109091-.7548147-1.3358678-3.8003582.2900827-7.9255545 0 0 2.5145454-.8049042 8.2368595 3.0698444 2.388595-.6635625 4.9502479-.9963356 7.4950413-1.0077422 2.5447934.0114066 5.1084297.3441797 7.5014876 1.0077422 5.7153719-3.8747486 8.2264463-3.0698444 8.2264463-3.0698444 1.6299173 4.1251963.6044628 7.1707398.2935537 7.9255545 1.92 2.0973137 3.0818182 4.7689213 3.0818182 8.0386279 0 11.5027414-7.005124 14.035487-13.6730579 14.7769114 1.0740496.9293843 2.0310744 2.7519493 2.0310744 5.5460532 0 4.0066676-.0347107 7.2317399-.0347107 8.2186527 0 .7969693.5390082 1.7308169 2.0568595 1.4367268 11.8914049-3.964513 20.4604958-15.1865546 20.4604958-28.4141617 0-16.5404601-13.4067768-29.94809201-29.9439669-29.94809201"/><path d="m11.4510744 43.2203334c-.0659504.1492767-.3.1934151-.5132232.0912522-.21719-.0976994-.3391735-.3005372-.2687603-.449814.0644628-.1532443.2990083-.1953988.5157025-.0937319.2176859.0981953.3416529.3030169.266281.4522937"/><path d="m12.6639669 44.573247c-.1428099.1324149-.4219834.0709189-.6114049-.1383662-.1958678-.2087891-.232562-.4880011-.0877686-.6223997.1472727-.132415.4180165-.070423.6143802.1383661.1958677.2112688.2340495.4884971.0847933.6223998"/><path d="m13.8446281 46.2981127c-.1834711.1274556-.4834711.007935-.6689256-.2583827-.1834711-.2663177-.1834711-.5857005.0039669-.713652.1859504-.1279515.4814876-.0128944.6694215.2514396.1829752.2702851.1829752.5901639-.0044628.7205951"/><path d="m15.4621488 47.9644579c-.1641323.1810167-.513719.1324149-.7695868-.1145612-.2618182-.2415209-.3347108-.5842127-.1700827-.7652294.1661157-.1815126.517686-.1304312.7755372.1145612.2598347.241025.3391736.5861965.1641323.7652294"/><path d="m17.6935537 48.9320292c-.0723967.2345778-.4090909.341204-.7482644.2415209-.3386777-.1026588-.5603306-.3774074-.4919009-.6144648.0704133-.2360656.4085951-.3471553.750248-.240529.3381818.1021628.5603305.3749277.4899173.6134729"/><path d="m20.1441322 49.1115581c.0084298.2469761-.2791735.4517977-.6352066.4557652-.3580165.0084309-.6476033-.1914313-.6515702-.43444 0-.2494558.281157-.4522937.6391735-.4582449.3560331-.0069431.6476033.1914313.6476033.4369197"/><path d="m22.4246281 48.7232401c.0426446.241025-.2047934.4884971-.5583471.5539606-.3476033.0639758-.6694215-.0848051-.7135537-.3238462-.0431405-.2469762.2087603-.4944483.5558677-.5584241.3540496-.061496.6709091.0833173.7160331.3283097"/></g></svg>

<?xml version="1.0" encoding="UTF-8"?>
<svg width="60px" height="59px" viewBox="0 0 60 59" version="1.1" xmlns="http://www.w3.org/2000/svg" xmlns:xlink="http://www.w3.org/1999/xlink">
    <!-- Generator: Sketch 41.2 (35397) - http://www.bohemiancoding.com/sketch -->
    <title>Github-icons</title>
    <desc>Created with Sketch.</desc>
    <defs></defs>
    <g id="Page-1" stroke="none" stroke-width="1" fill="none" fill-rule="evenodd">
        <g id="Desktop-HD" transform="translate(-845.000000, -1431.000000)" fill="#E96E14">
            <g id="Group-2" transform="translate(433.000000, 1431.000000)">
                <g id="Github" transform="translate(412.000000, 0.000000)">
                    <path d="M30.0540496,0.221187491 C13.5183471,0.221187491 0.109586777,13.6288194 0.109586777,30.1692795 C0.109586777,43.40135 8.68958678,54.6273591 20.587438,58.5874087 C22.0839669,58.864637 22.6333884,57.9377325 22.6333884,57.1467144 C22.6333884,56.4325665 22.6056198,54.0733985 22.5927273,51.5709051 C14.2621488,53.3825596 12.5042975,48.0373605 12.5042975,48.0373605 C11.1421488,44.5757267 9.17950413,43.6552693 9.17950413,43.6552693 C6.46264463,41.7965009 9.38429752,41.834688 9.38429752,41.834688 C12.3912397,42.0454608 13.9745455,44.9208982 13.9745455,44.9208982 C16.6452893,49.4993801 20.9796694,48.1757267 22.6884298,47.4104973 C22.9571901,45.4753547 23.7332231,44.1531891 24.5895868,43.4058135 C17.9385124,42.6485191 10.9467769,40.0805621 10.9467769,28.6050971 C10.9467769,25.3353905 12.1165289,22.6637829 14.0320661,20.5664692 C13.721157,19.8116545 12.6961983,16.766111 14.3221488,12.6409147 C14.3221488,12.6409147 16.8366942,11.8360105 22.5590083,15.7107591 C24.9476033,15.0471966 27.5092562,14.7144235 30.0540496,14.7030169 C32.598843,14.7144235 35.1624793,15.0471966 37.5555372,15.7107591 C43.2709091,11.8360105 45.7819835,12.6409147 45.7819835,12.6409147 C47.4119008,16.766111 46.3864463,19.8116545 46.0755372,20.5664692 C47.9955372,22.6637829 49.1573554,25.3353905 49.1573554,28.6050971 C49.1573554,40.1078385 42.1522314,42.6405841 35.4842975,43.3820085 C36.5583471,44.3113928 37.5153719,46.1339578 37.5153719,48.9280617 C37.5153719,52.9347293 37.4806612,56.1598016 37.4806612,57.1467144 C37.4806612,57.9436837 38.0196694,58.8775313 39.5375207,58.5834412 C51.4289256,54.6189282 59.9980165,43.3968866 59.9980165,30.1692795 C59.9980165,13.6288194 46.5912397,0.221187491 30.0540496,0.221187491" id="Fill-51"></path>
                    <path d="M11.4510744,43.2203334 C11.385124,43.3696101 11.1510744,43.4137485 10.9378512,43.3115856 C10.7206612,43.2138862 10.5986777,43.0110484 10.6690909,42.8617716 C10.7335537,42.7085273 10.9680992,42.6663728 11.1847934,42.7680397 C11.4024793,42.866235 11.5264463,43.0710566 11.4510744,43.2203334" id="Fill-52"></path>
                    <path d="M12.6639669,44.573247 C12.521157,44.7056619 12.2419835,44.6441659 12.052562,44.4348808 C11.8566942,44.2260917 11.82,43.9468797 11.9647934,43.8124811 C12.1120661,43.6800661 12.3828099,43.7420581 12.5791736,43.9508472 C12.7750413,44.162116 12.8132231,44.4393443 12.6639669,44.573247" id="Fill-53"></path>
                    <path d="M13.8446281,46.2981127 C13.661157,46.4255683 13.361157,46.3060477 13.1757025,46.03973 C12.9922314,45.7734123 12.9922314,45.4540295 13.1796694,45.326078 C13.3656198,45.1981265 13.661157,45.3131836 13.8490909,45.5775176 C14.0320661,45.8478027 14.0320661,46.1676815 13.8446281,46.2981127" id="Fill-54"></path>
                    <path d="M15.4621488,47.9644579 C15.2980165,48.1454746 14.9484298,48.0968728 14.692562,47.8498967 C14.4307438,47.6083758 14.3578512,47.265684 14.5224793,47.0846673 C14.688595,46.9031547 15.0401653,46.9542361 15.2980165,47.1992285 C15.5578512,47.4402535 15.6371901,47.785425 15.4621488,47.9644579" id="Fill-55"></path>
                    <path d="M17.6935537,48.9320292 C17.621157,49.166607 17.2844628,49.2732332 16.9452893,49.1735501 C16.6066116,49.0708913 16.3849587,48.7961427 16.4533884,48.5590853 C16.5238017,48.3230197 16.8619835,48.21193 17.2036364,48.3185563 C17.5418182,48.4207191 17.7639669,48.693484 17.6935537,48.9320292" id="Fill-56"></path>
                    <path d="M20.1441322,49.1115581 C20.152562,49.3585342 19.8649587,49.5633558 19.5089256,49.5673233 C19.1509091,49.5757542 18.8613223,49.375892 18.8573554,49.1328833 C18.8573554,48.8834275 19.1385124,48.6805896 19.4965289,48.6746384 C19.852562,48.6676953 20.1441322,48.8660697 20.1441322,49.1115581" id="Fill-57"></path>
                    <path d="M22.4246281,48.7232401 C22.4672727,48.9642651 22.2198347,49.2117372 21.866281,49.2772007 C21.5186777,49.3411765 21.1968595,49.1923956 21.1527273,48.9533545 C21.1095868,48.7063783 21.3614876,48.4589062 21.708595,48.3949304 C22.0626446,48.3334344 22.3795041,48.4782477 22.4246281,48.7232401" id="Fill-58"></path>
                </g>
            </g>
        </g>
    </g>
</svg>
